static/img/kroki/66df1348729ac7654095ea85e632d8a6.svg

<?xml version="1.0" encoding="us-ascii" standalone="no"?><svg xmlns="http://www.w3.org/2000/svg" xmlns:xlink="http://www.w3.org/1999/xlink" contentStyleType="text/css" height="573px" preserveAspectRatio="none" style="width:413px;height:573px;" version="1.1" viewBox="0 0 413 573" width="413px" zoomAndPan="magnify"><defs/><g><!--class account--><g id="elem_account"><rect codeLine="23" fill="#3D176E" height="39.7891" id="account" rx="2.5" ry="2.5" style="stroke:#000D19;stroke-width:0.5;" width="107" x="65.5" y="267.58"/><ellipse cx="80.5" cy="287.4745" fill="#ADD1B2" rx="11" ry="11" style="stroke:#181818;stroke-width:1.0;"/><path d="M83.4688,293.1152 Q82.8906,293.412 82.25,293.5527 Q81.6094,293.7089 80.9063,293.7089 Q78.4063,293.7089 77.0781,292.0683 Q75.7656,290.412 75.7656,287.287 Q75.7656,284.162 77.0781,282.5058 Q78.4063,280.8495 80.9063,280.8495 Q81.6094,280.8495 82.25,281.0058 Q82.9063,281.162 83.4688,281.4589 L83.4688,284.1777 Q82.8438,283.5995 82.25,283.3339 Q81.6563,283.0527 81.0313,283.0527 Q79.6875,283.0527 79,284.1308 Q78.3125,285.1933 78.3125,287.287 Q78.3125,289.3808 79,290.4589 Q79.6875,291.5214 81.0313,291.5214 Q81.6563,291.5214 82.25,291.2558 Q82.8438,290.9745 83.4688,290.3964 L83.4688,293.1152 Z " fill="#000000"/><text fill="#D9B8FF" font-family="Helvetica" font-size="17" lengthAdjust="spacing" textLength="65" x="99.5" y="293.3598">account</text></g><!--class microsoft_graph_entity--><g id="elem_microsoft_graph_entity"><rect codeLine="26" fill="#3D176E" height="39.7891" id="microsoft_graph_entity" rx="2.5" ry="2.5" style="stroke:#000D19;stroke-width:0.5;" width="236" x="170" y="367.37"/><ellipse cx="185" cy="387.2645" fill="#ADD1B2" rx="11" ry="11" style="stroke:#181818;stroke-width:1.0;"/><path d="M187.9688,392.9052 Q187.3906,393.202 186.75,393.3427 Q186.1094,393.4989 185.4063,393.4989 Q182.9063,393.4989 181.5781,391.8583 Q180.2656,390.202 180.2656,387.077 Q180.2656,383.952 181.5781,382.2958 Q182.9063,380.6395 185.4063,380.6395 Q186.1094,380.6395 186.75,380.7958 Q187.4063,380.952 187.9688,381.2489 L187.9688,383.9677 Q187.3438,383.3895 186.75,383.1239 Q186.1563,382.8427 185.5313,382.8427 Q184.1875,382.8427 183.5,383.9208 Q182.8125,384.9833 182.8125,387.077 Q182.8125,389.1708 183.5,390.2489 Q184.1875,391.3114 185.5313,391.3114 Q186.1563,391.3114 186.75,391.0458 Q187.3438,390.7645 187.9688,390.1864 L187.9688,392.9052 Z " fill="#000000"/><text fill="#D9B8FF" font-family="Helvetica" font-size="17" lengthAdjust="spacing" textLength="194" x="204" y="393.1498">microsoft_graph_entity</text></g><!--class microsoft_graph_organization--><g id="elem_microsoft_graph_organization"><rect codeLine="29" fill="#3D176E" height="39.7891" id="microsoft_graph_organization" rx="2.5" ry="2.5" style="stroke:#000D19;stroke-width:0.5;" width="290" x="7" y="528.16"/><ellipse cx="22" cy="548.0545" fill="#ADD1B2" rx="11" ry="11" style="stroke:#181818;stroke-width:1.0;"/><path d="M24.9688,553.6952 Q24.3906,553.992 23.75,554.1327 Q23.1094,554.2889 22.4063,554.2889 Q19.9063,554.2889 18.5781,552.6483 Q17.2656,550.992 17.2656,547.867 Q17.2656,544.742 18.5781,543.0858 Q19.9063,541.4295 22.4063,541.4295 Q23.1094,541.4295 23.75,541.5858 Q24.4063,541.742 24.9688,542.0389 L24.9688,544.7577 Q24.3438,544.1795 23.75,543.9139 Q23.1563,543.6327 22.5313,543.6327 Q21.1875,543.6327 20.5,544.7108 Q19.8125,545.7733 19.8125,547.867 Q19.8125,549.9608 20.5,551.0389 Q21.1875,552.1014 22.5313,552.1014 Q23.1563,552.1014 23.75,551.8358 Q24.3438,551.5545 24.9688,550.9764 L24.9688,553.6952 Z " fill="#000000"/><text fill="#D9B8FF" font-family="Helvetica" font-size="17" lengthAdjust="spacing" textLength="248" x="41" y="553.9398">microsoft_graph_organization</text></g><!--class microsoft_resource--><g id="elem_microsoft_resource"><rect codeLine="32" fill="#3D176E" height="39.7891" id="microsoft_resource" rx="2.5" ry="2.5" style="stroke:#000D19;stroke-width:0.5;" width="200" x="185" y="167.79"/><ellipse cx="200" cy="187.6845" fill="#ADD1B2" rx="11" ry="11" style="stroke:#181818;stroke-width:1.0;"/><path d="M202.9688,193.3252 Q202.3906,193.622 201.75,193.7627 Q201.1094,193.9189 200.4063,193.9189 Q197.9063,193.9189 196.5781,192.2783 Q195.2656,190.622 195.2656,187.497 Q195.2656,184.372 196.5781,182.7158 Q197.9063,181.0595 200.4063,181.0595 Q201.1094,181.0595 201.75,181.2158 Q202.4063,181.372 202.9688,181.6689 L202.9688,184.3877 Q202.3438,183.8095 201.75,183.5439 Q201.1563,183.2627 200.5313,183.2627 Q199.1875,183.2627 198.5,184.3408 Q197.8125,185.4033 197.8125,187.497 Q197.8125,189.5908 198.5,190.6689 Q199.1875,191.7314 200.5313,191.7314 Q201.1563,191.7314 201.75,191.4658 Q202.3438,191.1845 202.9688,190.6064 L202.9688,193.3252 Z " fill="#000000"/><text fill="#D9B8FF" font-family="Helvetica" font-size="17" lengthAdjust="spacing" textLength="158" x="219" y="193.5698">microsoft_resource</text></g><!--class resource--><g id="elem_resource"><rect codeLine="35" fill="#3D176E" height="39.7891" id="resource" rx="2.5" ry="2.5" style="stroke:#000D19;stroke-width:0.5;" width="113" x="106.5" y="7"/><ellipse cx="121.5" cy="26.8945" fill="#ADD1B2" rx="11" ry="11" style="stroke:#181818;stroke-width:1.0;"/><path d="M124.4688,32.5352 Q123.8906,32.832 123.25,32.9727 Q122.6094,33.1289 121.9063,33.1289 Q119.4063,33.1289 118.0781,31.4883 Q116.7656,29.832 116.7656,26.707 Q116.7656,23.582 118.0781,21.9258 Q119.4063,20.2695 121.9063,20.2695 Q122.6094,20.2695 123.25,20.4258 Q123.9063,20.582 124.4688,20.8789 L124.4688,23.5977 Q123.8438,23.0195 123.25,22.7539 Q122.6563,22.4727 122.0313,22.4727 Q120.6875,22.4727 120,23.5508 Q119.3125,24.6133 119.3125,26.707 Q119.3125,28.8008 120,29.8789 Q120.6875,30.9414 122.0313,30.9414 Q122.6563,30.9414 123.25,30.6758 Q123.8438,30.3945 124.4688,29.8164 L124.4688,32.5352 Z " fill="#000000"/><text fill="#D9B8FF" font-family="Helvetica" font-size="17" lengthAdjust="spacing" textLength="71" x="140.5" y="32.7798">resource</text></g><!--reverse link resource to account--><g id="link_resource_account"><path codeLine="38" d="M156.7435,64.6554 C148.6335,112.3654 130.49,218.98 122.3,267.08 " fill="none" id="resource-backto-account" style="stroke:#FFAF37;stroke-width:2.0;"/><polygon fill="none" points="159.76,46.91,150.8284,63.65,162.6587,65.6609,159.76,46.91" style="stroke:#FFAF37;stroke-width:2.0;"/></g><!--reverse link microsoft_resource to microsoft_graph_entity--><g id="link_microsoft_resource_microsoft_graph_entity"><path codeLine="39" d="M285.5664,225.9879 C286.1464,263.7579 287.13,329.05 287.71,366.88 " fill="none" id="microsoft_resource-backto-microsoft_graph_entity" style="stroke:#FFAF37;stroke-width:2.0;"/><polygon fill="none" points="285.29,207.99,279.5671,226.08,291.5657,225.8958,285.29,207.99" style="stroke:#FFAF37;stroke-width:2.0;"/></g><!--reverse link account to microsoft_graph_organization--><g id="link_account_microsoft_graph_organization"><path codeLine="40" d="M123.7059,325.3455 C129.7859,373.0455 143.39,479.56 149.53,527.66 " fill="none" id="account-backto-microsoft_graph_organization" style="stroke:#FFAF37;stroke-width:2.0;"/><polygon fill="none" points="121.43,307.49,117.7541,326.1042,129.6578,324.5869,121.43,307.49" style="stroke:#FFAF37;stroke-width:2.0;"/></g><!--reverse link microsoft_graph_entity to microsoft_graph_organization--><g id="link_microsoft_graph_entity_microsoft_graph_organization"><path codeLine="41" d="M259.8909,421.091 C233.7509,451.611 194.64,497.27 168.46,527.83 " fill="none" id="microsoft_graph_entity-backto-microsoft_graph_organization" style="stroke:#FFAF37;stroke-width:2.0;"/><polygon fill="none" points="271.6,407.42,255.3339,417.188,264.4479,424.9941,271.6,407.42" style="stroke:#FFAF37;stroke-width:2.0;"/></g><!--reverse link resource to microsoft_resource--><g id="link_resource_microsoft_resource"><path codeLine="42" d="M188.6869,61.3233 C212.1369,91.8433 246.75,136.9 270.23,167.47 " fill="none" id="resource-backto-microsoft_resource" style="stroke:#FFAF37;stroke-width:2.0;"/><polygon fill="none" points="177.72,47.05,183.9291,64.9789,193.4447,57.6677,177.72,47.05" style="stroke:#FFAF37;stroke-width:2.0;"/></g><!--SRC=[ZP9DJm8n48Rl_HLDE9E0H8742v8OlH0ZtidGJfU6tNOp7IIW_dSNOKdP3_3OUP_EFDDqPJLAp7BUoGop9L8GOMrT3WIPd13vxTIddcJ76323OJLyzevl0ZF8KBvW-ebi5LI9ZvLLQuSXoBieUWArJiXld3wsPm8NYWWTHzGqXH0cp6IN6yP8He-N8sEgPBLfPw3xmmUiOPuqqWdfzNgwFwuYDqTTtVjCpEqUPJz-j9bdh6dMHlnHLoqFH2HPMxJCMntVG6lh4daVrTwFJkIGBkhp5MY_FT06qX2F2Oo4ddSvJcjRuNYapR0HVcs3XJeydGIbYepbbn0_fr9c5VdW3IyIWdorA3wABJxr5S9J0ixkWQrtpHnXy1jI6AUNjVFfyRlRxPPUeg754MYs5EK-pL0iAbhs_CVDLfKo4By0]--></g></svg>

<svg xmlns="http://www.w3.org/2000/svg" width="413" height="573" viewBox="0 0 413 573"><rect width="107" height="39.789" x="65.5" y="267.58" fill="#3D176E" rx="2.5" ry="2.5" style="stroke:#000d19;stroke-width:.5"/><circle cx="80.5" cy="287.474" r="11" fill="#ADD1B2" style="stroke:#181818;stroke-width:1"/><path d="M83.469 293.115q-.578.297-1.219.438-.64.156-1.344.156-2.5 0-3.828-1.64-1.312-1.657-1.312-4.782t1.312-4.781q1.328-1.656 3.828-1.656.703 0 1.344.156.656.156 1.219.453v2.719q-.625-.579-1.219-.844-.594-.281-1.219-.281-1.344 0-2.031 1.078-.687 1.062-.687 3.156t.687 3.172q.688 1.062 2.031 1.062.625 0 1.219-.265.594-.281 1.219-.86z"/><text x="99.5" y="293.36" fill="#D9B8FF" font-family="Helvetica" font-size="17" textLength="65">account</text><rect width="236" height="39.789" x="170" y="367.37" fill="#3D176E" rx="2.5" ry="2.5" style="stroke:#000d19;stroke-width:.5"/><circle cx="185" cy="387.264" r="11" fill="#ADD1B2" style="stroke:#181818;stroke-width:1"/><path d="M187.969 392.905q-.578.297-1.219.438-.64.156-1.344.156-2.5 0-3.828-1.64-1.312-1.657-1.312-4.782t1.312-4.781q1.328-1.656 3.828-1.656.703 0 1.344.156.656.156 1.219.453v2.719q-.625-.579-1.219-.844-.594-.281-1.219-.281-1.344 0-2.031 1.078-.687 1.062-.687 3.156t.687 3.172q.688 1.062 2.031 1.062.625 0 1.219-.265.594-.281 1.219-.86z"/><text x="204" y="393.15" fill="#D9B8FF" font-family="Helvetica" font-size="17" textLength="194">microsoft_graph_entity</text><rect width="290" height="39.789" x="7" y="528.16" fill="#3D176E" rx="2.5" ry="2.5" style="stroke:#000d19;stroke-width:.5"/><circle cx="22" cy="548.054" r="11" fill="#ADD1B2" style="stroke:#181818;stroke-width:1"/><path d="M24.969 553.695q-.578.297-1.219.438-.64.156-1.344.156-2.5 0-3.828-1.64-1.312-1.657-1.312-4.782t1.312-4.781q1.328-1.657 3.828-1.657.703 0 1.344.157.656.156 1.219.453v2.719q-.625-.579-1.219-.844-.594-.281-1.219-.281-1.343 0-2.031 1.078-.687 1.062-.687 3.156t.687 3.172q.688 1.062 2.031 1.062.625 0 1.219-.265.594-.282 1.219-.86z"/><text x="41" y="553.94" fill="#D9B8FF" font-family="Helvetica" font-size="17" textLength="248">microsoft_graph_organization</text><rect width="200" height="39.789" x="185" y="167.79" fill="#3D176E" rx="2.5" ry="2.5" style="stroke:#000d19;stroke-width:.5"/><circle cx="200" cy="187.685" r="11" fill="#ADD1B2" style="stroke:#181818;stroke-width:1"/><path d="M202.969 193.325q-.578.297-1.219.438-.64.156-1.344.156-2.5 0-3.828-1.64-1.312-1.657-1.312-4.782t1.312-4.781q1.328-1.656 3.828-1.656.703 0 1.344.156.656.156 1.219.453v2.719q-.625-.578-1.219-.844-.594-.281-1.219-.281-1.344 0-2.031 1.078-.687 1.062-.687 3.156t.687 3.172q.688 1.062 2.031 1.062.625 0 1.219-.265.594-.281 1.219-.86z"/><text x="219" y="193.57" fill="#D9B8FF" font-family="Helvetica" font-size="17" textLength="158">microsoft_resource</text><rect width="113" height="39.789" x="106.5" y="7" fill="#3D176E" rx="2.5" ry="2.5" style="stroke:#000d19;stroke-width:.5"/><circle cx="121.5" cy="26.895" r="11" fill="#ADD1B2" style="stroke:#181818;stroke-width:1"/><path d="M124.469 32.535q-.578.297-1.219.438-.64.156-1.344.156-2.5 0-3.828-1.64-1.312-1.657-1.312-4.782t1.312-4.781q1.328-1.656 3.828-1.656.703 0 1.344.156.656.156 1.219.453v2.719q-.625-.578-1.219-.844-.594-.281-1.219-.281-1.344 0-2.031 1.078-.687 1.062-.687 3.156t.687 3.172q.688 1.062 2.031 1.062.625 0 1.219-.265.594-.281 1.219-.86z"/><text x="140.5" y="32.78" fill="#D9B8FF" font-family="Helvetica" font-size="17" textLength="71">resource</text><g fill="none"><path d="M156.744 64.655c-8.11 47.71-26.254 154.325-34.444 202.425" style="stroke:#ffaf37;stroke-width:2"/><path d="m159.76 46.91-8.932 16.74 11.83 2.01z" style="stroke:#ffaf37;stroke-width:2"/></g><g fill="none"><path d="M285.566 225.988c.58 37.77 1.564 103.062 2.144 140.892" style="stroke:#ffaf37;stroke-width:2"/><path d="m285.29 207.99-5.723 18.09 11.999-.184z" style="stroke:#ffaf37;stroke-width:2"/></g><path fill="none" d="M123.706 325.346c6.08 47.7 19.684 154.214 25.824 202.314m-28.1-220.17-3.676 18.614 11.904-1.517zm138.46 113.601c-26.14 30.52-65.25 76.179-91.43 106.739M271.6 407.42l-16.266 9.768 9.114 7.806z" style="stroke:#ffaf37;stroke-width:2"/><g fill="none"><path d="M188.687 61.323c23.45 30.52 58.063 75.577 81.543 106.147" style="stroke:#ffaf37;stroke-width:2"/><path d="m177.72 47.05 6.21 17.929 9.515-7.311z" style="stroke:#ffaf37;stroke-width:2"/></g></svg>
